lib/assets/icons/svg/outlined-action-download.svg

<svg xmlns="http://www.w3.org/2000/svg" viewBox="0 0 24 24"><path d="M11.995 15.215a.492.492 0 0 1-.35-.15.448.448 0 0 1-.075-.095l-4.155-4.155a.5.5 0 0 1 .7-.71l3.4 3.408V5.365a.5.5 0 0 1 1 0v8.12l3.38-3.38a.502.502 0 0 1 .71.71l-4.153 4.144a.51.51 0 0 1-.087.116.473.473 0 0 1-.35.14h-.02zm5.3 3.92H6.705a2 2 0 0 1-2-2v-.63a.5.5 0 0 1 1 0v.63a1 1 0 0 0 1 1h10.59a1 1 0 0 0 1-1v-.63a.5.5 0 0 1 1 0v.63a2 2 0 0 1-2 2z"/></svg>

<svg viewBox="0 0 24 24" xmlns="http://www.w3.org/2000/svg">
  <path  d="M 11.995 15.215 C 11.863 15.214 11.737 15.16 11.645 15.065 C 11.615 15.036 11.59 15.004 11.57 14.97 L 7.415 10.815 C 7.218 10.619 7.218 10.301 7.415 10.105 C 7.609 9.914 7.921 9.914 8.115 10.105 L 11.515 13.513 L 11.515 5.365 C 11.515 4.98 11.932 4.74 12.265 4.932 C 12.42 5.021 12.515 5.186 12.515 5.365 L 12.515 13.485 L 15.895 10.105 C 16.168 9.832 16.635 9.957 16.735 10.33 C 16.781 10.503 16.732 10.688 16.605 10.815 L 12.452 14.959 C 12.429 15.001 12.4 15.04 12.365 15.075 C 12.273 15.168 12.146 15.219 12.015 15.215 C 12.01 15.215 12.006 15.215 12.001 15.215 C 11.999 15.215 11.997 15.215 11.995 15.215 Z M 17.295 19.135 L 6.705 19.135 C 5.6 19.135 4.705 18.24 4.705 17.135 L 4.705 16.505 C 4.705 16.229 4.929 16.005 5.205 16.005 C 5.481 16.005 5.705 16.229 5.705 16.505 L 5.705 17.135 C 5.705 17.687 6.153 18.135 6.705 18.135 L 17.295 18.135 C 17.847 18.135 18.295 17.687 18.295 17.135 L 18.295 16.505 C 18.295 16.229 18.519 16.005 18.795 16.005 C 19.071 16.005 19.295 16.229 19.295 16.505 L 19.295 17.135 C 19.295 18.24 18.4 19.135 17.295 19.135 Z"/>
</svg>
